src/icons/svg/VisBar.svg

<svg width="24" height="24" viewBox="0 0 24 24" fill="none" xmlns="http://www.w3.org/2000/svg">
<path d="M2.80902 2.80901H21.192V5.87301H2.80902V2.80901V2.80901Z" fill="#1C2125"/>
<path d="M2.80902 18.128H7.40502V21.192H2.80902V18.128Z" fill="#1C2125"/>
<path d="M2.80902 7.91499H16.596V10.979H2.80902V7.91499V7.91499Z" fill="#1C2125"/>
<path d="M2.80902 13.021H12V16.085H2.80902V13.021V13.021Z" fill="#1C2125"/>
<path d="M23.872 23.872H0.127014V0.126999H23.872V23.872ZM0.894014 23.106H23.107V0.892999H0.894014V23.106V23.106Z" fill="#1C2125"/>
</svg>

<!-- Generated by IcoMoon.io -->
<svg version="1.1" xmlns="http://www.w3.org/2000/svg" width="24" height="24" viewBox="0 0 24 24">
<title>vis-bar</title>
<path fill="#444" d="M2.809 2.809h18.383v3.064h-18.383v-3.064z"></path>
<path fill="#444" d="M2.809 18.128h4.596v3.064h-4.596v-3.064z"></path>
<path fill="#444" d="M2.809 7.915h13.787v3.064h-13.787v-3.064z"></path>
<path fill="#444" d="M2.809 13.021h9.191v3.064h-9.191v-3.064z"></path>
<path fill="#444" d="M23.872 23.872h-23.745v-23.745h23.745v23.745zM0.894 23.106h22.213v-22.213h-22.213v22.213z"></path>
</svg>
